X: 15772
T: Good Morning To Your Nightcap
R: reel
M: 4/4
K: Adorian
~e3 c ~d3 B|cBcd edd2|ecec dBdB|(3cBA BG EGD2|
ecec dedB|cBcd ec d2|~g3 e dGBd|BA~AG EGD2|
~e3 c dGB/c/d|cBcd e2 d2|edce dcB/c/d|cABG (3EGE D2|
ecec d^cdB|cBcd ec d2|egfa gedB|cABG (3EGE D2|
~A3 G BG~G2|cBcd ~e2 d2|eA~A2 BG~G2|(3cBA ~AG EGD2|~A3 G BG~G2|
cBcd ~e2 d2|1 ~g3 e dGBd|BA~AG EGD2:|2 (3efg fa gedB|cABG (3EGE D2||

